################################################################################################################################################################
################################################################################################################################################################
################################################################################################################################################################
################################################################################################################################################################
############################################################################################################################rrrrrrrrrrrrrrrrrrrrrrrrrrrrrrrr####
###########################################################################################################################rrrrrrrrrrrrrrrrrrrrrrrrrrrrrrrrr####
###########################################**************##########################**************##########################rrrrrrrrrrrrrrrrrrrrrrrrrrrrrrrrr####
##########################################****************########################****************########################rrrrrrrrrrrrrrrrrrrrrrrrrrrrrrrrrr####
###########################################**************##########################**************########################rrrrrrrrrrrrrrrrrrrrrrrrrrrrrrrrrrr####
####################=====================================================================================================rrrrrrrrrrrrrrrrrrrrrrrrrrrrrrrrrrr####
##################======================================================================================================rrrrrrrrrrrrrrrrrrrrrrrrrrrrrrrrrrrr####
#################=======================================================================================================rrrrrrrrrrrrrrrrrrrrrrrrrrrrrrrrrrrr####
################=======================================================================================================rrrrrrrrrrrrrrrrrrrrrrrrrrrrrrrrrrrrr####
###############========================================================================================================rrrrrrrrrrrrrrrrrrrrrrrrrrrrrrrrrrrrr####
##############=========================================================================================================rrrrrrrrrrrrrrrrrrrrrrrrrrrrrrrrrrrrr####
#############=========================================================================================================rrrrrrrrrrrrrrrrrrrrrrrrrrrrrrrrrrrrrr####
############==========================================================================================================rrrrrrrrrrrrrrrrrrrrrrrrrrrrrrrrrrrrrr####
###########===========================================================================================================rrrrrrrrrrrrrrrrrrrrrrrrrrrrrrrrrrrrrr####
##########============================================================================================================rrrrrrrrrrrrrrrrrrrrrrrrrrrrrrrrrrrrrr####
##########===========~~~~~~####**********#######################......############################.....###############rrrrrrrrrrrrrrrrrrrrrrrrrrrrrrrrrrrrrr####
#########===========~~~~~~~~##************######################......############################.....###############rrrrrrrrrrrrrrrrrrrrrrrrrrrrrrrrrrrrrr####
#########==========~~~~~~~~~~##**********########################......###########################.....###############rrrrrrrrrrrrrrrrrrrrrrrrrrrrrrrrrrrrrr####
#########==========~~~~~~~~~~~~##################################......############################.....##############rrrrrrrrrrrrrrrrrrrrrrrrrrrrrrrrrrrrrr####
#########==========~~~~~~~~~~~~~##################################......###########################.....##############rrrrrrrrrrrrrrrrrrrrrrrrrrrrrrrrrrrrrr####
#########==========~~~~~~~~~~~~~~#################################......###########################.....#############.rrrrrrrrrrrrrrrrrrrrrrrrrrrrrrrrrrrrrr####
#########==========~~~~~~~~~~~~~~~#################################......##########################.....########.......rrrrrrrrrrrrrrrrrrrrrrrrrrrrrrrrrrrrr####
#########==========~~~~~~~~~~~~~~~~################################......#########################........#..*******...rrrrrrrrrrrrrrrrrrrrrrrrrrrrrrrrrrrrr####
#########==========#~~~~~~~~~~~~~~~~################################......########################..........********...rrrrrrrrrrrrrrrrrrrrrrrrrrrrrrrrrrrrr####
#########==========##~~~~~~~~~~~~~~~~*##############################........###################.............********....rrrrrrrrrrrrrrrrrrrrrrrrrrrrrrrrrrrr####
#########==========###~~~~~~~~~~~~~~***##############################.........##########....................*******..###rrrrrrrrrrrrrrrrrrrrrrrrrrrrrrrrrrrr####
#########==========#*##~~~~~~~~~~~~~****#######...............#######..........##....*******....................#########rrrrrrrrrrrrrrrrrrrrrrrrrrrrrrrrrrr####
#########==========***##~~~~~~~~~~~~~****####.......................................********...............##############rrrrrrrrrrrrrrrrrrrrrrrrrrrrrrrrrrr####
#########==========***###~~~~~~~~~~~~~****#.........................................********..............##############==rrrrrrrrrrrrrrrrrrrrrrrrrrrrrrrrrr####
#########==========***####~~~~~~~~~~~~~****.........................................*******....###........#############====rrrrrrrrrrrrrrrrrrrrrrrrrrrrrrrrr####
#########==========***#####~~~~~~~~~~~~****~............................................#########.......##############=====rrrrrrrrrrrrrrrrrrrrrrrrrrrrrrrrr####
#########==========***######~~~~~~~~~~~~***~~...##############...................################.....###############=======rrrrrrrrrrrrrrrrrrrrrrrrrrrrrrrr####
#########==========***#######**~~~~~~~~~~~~~~~#######################..........#################......##############=========rrrrrrrrrrrrrrrrrrrrrrrrrrrrrr#####
#########==========***######****~~~~~~~~~~~~~~~####################***.........#################......#############============rrrrrrrrrrrrrrrrrrrrrrrrrr#######
#########==========***#######****~~~~~~~~~~~~~~~###################****.......##################.....#############==============rrrrrrrrrrrrrrrrrrrrrrrr########
#########==========***########*****~~~~~~~~~~~~~~##################*****.....##################......############===============##rrrrrrrrrrrrrrrrrrrr=#########
#########==========***#########*****~~~~~~~~~~~~~~##################****.....################.......############===============####.rrrrrrrrrrrrrrrr===#########
#########==========#*###########****~~~~~~~~~~~~~~~##################***.....###############........###########===============#####....rrrrrrrrrr======#########
#######*#==========##############***~~~~~~~~~~~~~~~~########......######.....###############........##########===============######.....#####==========#########
######***==========#############.....~~~~~~~~~~~~~~~~######........#####.....##############.........#########===============######.....######==========#########
######***==========#############.....#~~~~~~~~~~~~~~~~####..........#####.....###########............#######===============#######.***.######==========#########
######***==========############......##~~~~~~~~~~~~~~~###............####.....#########...............#####===============########****.######==========#########
######***==========############.....####~~~~~~~~~~~~~~~#..............###.....#######..**..............###===============#########****.######==========#########
######***==========###########......#####~~~~~~~~~~~~~~~..............###.....#####..*****..............#===============##########****.######==========#########
######***==========###########.....########~~~~~~~~~~~~~~.............###.....###..*******...#####..**..===============##########.****#######==========#########
######***==========###########.....#########~~~~~~~~~~~~~.............###.....#...*******..########****===============###########.****#######==========#########
######***==========###########.....#########~~~~~~~~~~~~~~............##..........*****..#########****===============############.****#######==========#########
######***==========###########.....##########~~~~~~~~~~~~~~...........##...........**..##########****===============#############.***.#######==========#########
######***==========###########.....###########~~~~~~~~~~~~~~.........##..............###########****===============##############.....#######==========#########
######***==========###########.....############~~~~~~~~~~~~~........###............#############***===============##############.....########==========#########
######***==========###########.....############~~~~~~~~~~~~~~......####..........################*===============#############........#######==========#########
######***==========###########.....#############~~~~~~~~~~~~~~....#####...........###############===============##############........#######==========#########
######***==========###########.....##############~~~~~~~~~~~~~~#######..............############===============..############.............###==========#########
#######*#==========###########.....###############~~~~~~~~~~~~~#####.................##########===============*...###########................==========#########
#########==========###########.....###############~~~~~~~~~~~~~~###....................#######===============***...#######...................==========#########
#########==========###########.....################~~~~~~~~~~~~~~#........#####.........#####===============****....####.....................==========#########
#########==========###########.....#################~~~~~~~~~~~~~~.......########........###===============****..............................==========#########
#########==========###########.....##################~~~~~~~~~~~~~.....###########.........===============****#.......................####...==========#########
#########==========############.....#################~~~~~~~~~~~~~~...##############......===============****###..............#.....#########==========#*#######
#########==========############.....##################~~~~~~~~~~~~~~.################....===============##**####............###.....#########==========***######
#########==========..##########.....###################~~~~~~~~~~~~~~#################..===============#########.........######.....#########==========***######
#########==========....########.....####################~~~~~~~~~~~~~##################===============##########........######.....##########==========***######
#########==========......######.....####################~~~~~~~~~~~~~~~###############===============###########........######.....##########==========***######
#########==========........####.....#***#################~~~~~~~~~~~~~~~#############===============###########........#######.....##########==========***######
#########==========..........##.....#****################.~~~~~~~~~~~~~~~###########===============############......#########.***.##########==========***######
#########==========..................*****###############..~~~~~~~~~~~~~~~~########===============.###########......##########****.##########==========***######
#########==========##.................****##############...~~~~~~~~~~~~~~~~~######===============..###########.**...##########****.##########==========***######
#########==========####................***##########........~~~~~~~~~~~~~~~~~~###===============....#########.****.###########****.##########==========***######
#########==========######...................######...........~~~~~~~~~~~~~~~~~~#===============......########.****.##########.****###########==========***######
#########==========########.................................##~~~~~~~~~~~~~~~~~~==============#.......######.****.###########.****###########==========***######
#########==========#########...............................####~~~~~~~~~~~~~~~~~~~===========###......######.****.###########.****###########==========***######
#########==========#########...............................####***~~~~~~~~~~~~~~~~~=========#####......####.****.############.***.###########==========***######
#########==========##########..............................####****~~~~~~~~~~~~~~~~~~======#######......###.****.############.....###########==========***######
#########==========##########..........#####...............#####*****~~~~~~~~~~~~~~~~~====########......##...**.#############.....###########==========#*#######
#########==========###########........############.........######*****~~~~~~~~~~~~~~~~~==##########......#......#############.....###########==========#########
#########==========############.....#############...........######****~~~~~~~~~~~~~~~~~~~##*########...........#############.....############==========#########
#########==========############.....#############...........########*##~~~~~~~~~~~~~~~~~~~****######...........#############.....############==========#########
#########==========###########.....#############......#......##########==~~~~~~~~~~~~~~~~~*****######.........############........###########==========#########
#######*#==========###########.....#############.**...##......########====~~~~~~~~~~~~~~~~~*****#####...............#####..........##########==========#########
######***==========###########.....############.****.###......#######======~~~~~~~~~~~~~~~~~~****####..............................##########==========#########
######***==========###########.***.############.****.####......#####=========~~~~~~~~~~~~~~~~~***####...............................#########==========#########
######***==========###########****.###########.****.######......###===========~~~~~~~~~~~~~~~~~~~####...............................#########==========#########
######***==========###########****.###########.****.######.......#==============~~~~~~~~~~~~~~~~~~##.................................########==========#########
######***==========###########****.##########.****.########......===============#~~~~~~~~~~~~~~~~~~...........######...................######==========#########
######***==========##########.****###########.****.#########....===============###~~~~~~~~~~~~~~~~~~........##########***................####==========#########
######***==========##########.****##########...**.###########..===============######~~~~~~~~~~~~~~~~~...##############****.................##==========#########
######***==========##########.****##########......###########.===============########~~~~~~~~~~~~~~~~..###############*****..................==========#########
######***==========##########.***.#########......############===============###########~~~~~~~~~~~~~~~.################****#.....##..........==========#########
######***==========##########.....#######........###########===============#############~~~~~~~~~~~~~~~#################***#.....####........==========#########
######***==========##########.....######........###########===============###############~~~~~~~~~~~~~~~####################.....######......==========#########
######***==========##########.....######........##########===============##################~~~~~~~~~~~~~####################.....########....==========#########
######***==========#########.....######.........#########===============..#################~~~~~~~~~~~~~~###################.....##########..==========#########
######***==========#########.....###............####**##===============....################.~~~~~~~~~~~~~~##################.....############==========#########
#######*#==========#########.....#..............###****===============......##############...~~~~~~~~~~~~~~#################.....############==========#########
#########==========...####.......................#****===============.........###########.....~~~~~~~~~~~~~##################.....###########==========#########
#########==========..............................****===============###........########.......~~~~~~~~~~~~~~#################.....###########==========#########
#########==========.....................####....****===============#####.........#####........#~~~~~~~~~~~~~~################.....###########==========#########
#########==========...................#######...***===============#######....................###~~~~~~~~~~~~~~###############.....###########==========#########
#########==========................###########...*===============##########.................#####~~~~~~~~~~~~~###############.....###########==========#*#######
#########==========###.............############..===============############..............#######~~~~~~~~~~~~~~##############.....###########==========***######
#########==========#######........##############===============###############...........#####....~~~~~~~~~~~~~~#############.....###########==========***######
#########==========#######........#############===============*################..........####......~~~~~~~~~~~~~~############.....###########==========***######
#########==========########.....##############===============***#############............###........~~~~~~~~~~~~~############.....###########==========***######
#########==========#######.....##############===============****###########..............##.........~~~~~~~~~~~~~~###########.....###########==========***######
#########==========#######.***.#############===============****##########..**...........##...........~~~~~~~~~~~~~~##########.....###########==========***######
#########==========#######****.############===============****#########..*****..........##............~~~~~~~~~~~~~~#########.....###########==========***######
#########==========#######****.###########===============****########..*******...#.....###.............~~~~~~~~~~~~~#########.....###########==========***######
#########==========#######****.##########===============..**..#####...*******..###.....###.............~~~~~~~~~~~~~~########.....###########==========***######
#########==========######.****##########===============#..............*****..#####.....###..............~~~~~~~~~~~~~~~#####......###########==========***######
#########==========######.****#########===============###..............**..#######.....###..............#~~~~~~~~~~~~~~~####.....############==========***######
#########==========######.****########===============#####...............#########.....####............###~~~~~~~~~~~~~~~##......############==========***######
#########==========######.***.#######===============#######............###########.....#####..........####~~~~~~~~~~~~~~~~#.....#############==========***######
#########==========######.....######===============#########.........##############.....#####........######~~~~~~~~~~~~~~~~.....#############==========***######
#########==========#####.....######===============##########........###############.....######......########~~~~~~~~~~~~~~~~***##############==========#*#######
#########======bbbbbbbbbb....#####===============###########........###############.....***##################~~~~~~~~~~~~~~~****###########*#==========#########
#########===bbbbbbbbbbbbbbbb.####===============############.......################.....****##################~~~~~~~~~~~~~~*****#########***==========#########
#########=bbbbbbbbbbbbbbbbbbbb##===============############......##################.....*****##################~~~~~~~~~~~~~~*****########***==========#########
########bbbbbbbbbbbbbbbbbbbbbbbb==============#############.....##################.......****###################~~~~~~~~~~~~~~~****#######***==========#########
#######bbbbbbbbbbbbbbbbbbbbbbbbbb============#############......#################.........***####################~~~~~~~~~~~~~~~****######***==========#########
#####bbbbbbbbbbbbbbbbbbbbbbbbbbbbbb=========##############......#################..........#######################~~~~~~~~~~~~~~~**#######***==========#########
####bbbbbbbbbbbbbbbbbbbbbbbbbbbbbbbb=======###############.....################...................##############...~~***~~~~~~~~~~~~######***==========#########
####bbbbbbbbbbbbbbbbbbbbbbbbbbbbbbbbb=====##############.......#########............................................~****~~~~~~~~~~~~#####***==========#########
####bbbbbbbbbbbbbbbbbbbbbbbbbbbbbbbbb====#############........###....*******.........................................****~~~~~~~~~~~~~####***==========#########
####bbbbbbbbbbbbbbbbbbbbbbbbbbbbbbbbbb==##############..............********.........................................#****~~~~~~~~~~~~~###***==========#########
####bbbbbbbbbbbbbbbbbbbbbbbbbbbbbbbbbbb##############...............********.......................................####****~~~~~~~~~~~~~##***==========#########
####bbbbbbbbbbbbbbbbbbbbbbbbbbbbbbbbbbb#########....................*******....##..........#######...............#######****~~~~~~~~~~~~~##*#==========#########
####bbbbbbbbbbbbbbbbbbbbbbbbbbbbbbbbbbbb###..*******....................##########.........##############################***~~~~~~~~~~~~~~###==========#########
####bbbbbbbbbbbbbbbbbbbbbbbbbbbbbbbbbbbb....********.............###################........##############################*~~~~~~~~~~~~~~~~##==========#########
####bbbbbbbbbbbbbbbbbbbbbbbbbbbbbbbbbbbbb...********..........########################......################################~~~~~~~~~~~~~~~~#==========#########
####bbbbbbbbbbbbbbbbbbbbbbbbbbbbbbbbbbbbb...*******..#........#########################......################################~~~~~~~~~~~~~~~~==========#########
####bbbbbbbbbbbbbbbbbbbbbbbbbbbbbbbbbbbbb.......########.....##########################......#################################~~~~~~~~~~~~~~~==========#########
####bbbbbbbbbbbbbbbbbbbbbbbbbbbbbbbbbbbbbb.#############.....###########################......#################################~~~~~~~~~~~~~~==========#########
####bbbbbbbbbbbbbbbbbbbbbbbbbbbbbbbbbbbbbb##############.....###########################......##################################~~~~~~~~~~~~~==========#########
####bbbbbbbbbbbbbbbbbbbbbbbbbbbbbbbbbbbbbb##############.....############################......##################################~~~~~~~~~~~~==========#########
####bbbbbbbbbbbbbbbbbbbbbbbbbbbbbbbbbbbbbb###############.....###########################......########################**********##~~~~~~~~~~==========#########
####bbbbbbbbbbbbbbbbbbbbbbbbbbbbbbbbbbbbbb###############.....############################......######################************##~~~~~~~~===========#########
####bbbbbbbbbbbbbbbbbbbbbbbbbbbbbbbbbbbbbb###############.....############################......#######################**********####~~~~~~===========##########
####bbbbbbbbbbbbbbbbbbbbbbbbbbbbbbbbbbbbbb============================================================================================================##########
####bbbbbbbbbbbbbbbbbbbbbbbbbbbbbbbbbbbbbb===========================================================================================================###########
####bbbbbbbbbbbbbbbbbbbbbbbbbbbbbbbbbbbbbb==========================================================================================================############
####bbbbbbbbbbbbbbbbbbbbbbbbbbbbbbbbbbbbbb=========================================================================================================#############
####bbbbbbbbbbbbbbbbbbbbbbbbbbbbbbbbbbbbb=========================================================================================================##############
####bbbbbbbbbbbbbbbbbbbbbbbbbbbbbbbbbbbbb========================================================================================================###############
####bbbbbbbbbbbbbbbbbbbbbbbbbbbbbbbbbbbbb=======================================================================================================################
####bbbbbbbbbbbbbbbbbbbbbbbbbbbbbbbbbbbb=======================================================================================================#################
####bbbbbbbbbbbbbbbbbbbbbbbbbbbbbbbbbbbb======================================================================================================##################
####bbbbbbbbbbbbbbbbbbbbbbbbbbbbbbbbbbb=====================================================================================================####################
####bbbbbbbbbbbbbbbbbbbbbbbbbbbbbbbbbbb########################**************##########################**************###########################################
####bbbbbbbbbbbbbbbbbbbbbbbbbbbbbbbbbb########################****************########################****************##########################################
####bbbbbbbbbbbbbbbbbbbbbbbbbbbbbbbbb##########################**************##########################**************###########################################
####bbbbbbbbbbbbbbbbbbbbbbbbbbbbbbbbb###########################################################################################################################
####bbbbbbbbbbbbbbbbbbbbbbbbbbbbbbbb############################################################################################################################
################################################################################################################################################################
################################################################################################################################################################
################################################################################################################################################################
################################################################################################################################################################
